X:1061
M:2/4
L:1/8
Q:1/4=104
K:G
c2    e>d|   d2 c/B/A/G/| GG`````FG |   B2 {cB}Az|
c2    e>d|   de`c```A   | G2     F>G|   G2     z2|
d3     d |   g3     f   | ef`````ge |   g>f````dz|
e^d```ef |   ag`f{d}e   | d2    ^c>d|   d3      d|
d2   =f>e|   e3    ^G   | Ac`````Be |   e>d````cc|
c2    e>d|   dF`G```B   | E2     c>B|   B2 {cB}A2|
c2    e>d|   d2 c/B/A/G/| A2 {BA}GA |   B2 {cB}Ad/c/|
bg````ec |{e}d3     F   |{A}G2|]


